X:385
T: SITZT EIN SCHOENS VOEGEL IM TANNENWALD
N: E1575A
O: Europa, Mitteleuropa, Deutschland, Bergisches Land
R: Staende - Lied, Fuhrmann
M: 3/4
L: 1/8
K: F
 | A2A2A2 | c3BA2 | c2f2c2
A2A2A2 | c3BA2 | c4z2
c2f2A2 | c2B2B2 | B2d2G2 | B2A2A2
A2A2A2 | c3BA2 | c2f2c2
A2A2A2 | c3BB2 | A4z2
c2f2A2 | c2B2B2 | B2d2G2 | B2A2A2
A2A2A2 | c3BA2 | c2f2c2
A2A2A2 | c3BB2 | A4z2

